X:244
%%topmargin 3cm
T:Tullochgorum
T:Tulloch Gorm
T:The Green Hill
C:
O:Scotland
B:Keith Norman MacDonald : "The Skye collection of the best reels & strathspeys extant" : 1887
Z:Ralph Palmer
R:Strathspey
M:C
L:1/8
K:D mixolydian
c/ | B>Gd>G c<=F [F2A2] | B>Gd>G B>cd<g | B>Gd>G c>=FA>c | B>Gd>G (A/B/c) A3/2 :|
B/ | G>gd>g =f>F [F2A2] | G>gd>g B>gd>g | G>gd>g f>F [F2A2] | G>gd>g ( A/B/c) AB | G>gd>e =f=F [F2A2] |
G>gd>e =fg{fg}ag | a/g/=f/e/ fd cFAa | g>dg>b g2 d3/ || C/ | B,>G,D>G, C>B,A,>C | B,>G,D>G, E>G,D>F |
{/F}G>G,D>G, C>B,A,>C | B,>G, G/F/E/D/ {/C}B,2 A,>C | B,>G,D>G, C>B,A,>C | B,>G,D>G, E>G,D>F | {/F}G>G,D>G, C>B,A,>C |
B,>G, G/F/E/D/ {/C}B,2 A,>B, | G,>gd>e =fF [F2A2] | G>gd>g B>gd>g | G>gd>g =f=F [F2A2] | G>gd>g (A/B/c) AB |
G>gd>e =f=F [F2A2] | G>gd>e =fg{fg}ag | a/g/f/e/ fdcF Aa | gdgb g2 d3/2 |]
